Papirus/32x32/apps/borderlands-2.svg

<svg xmlns="http://www.w3.org/2000/svg" width="32" height="32" version="1">
 <rect style="opacity:0.2" width="28" height="28" x="2" y="3" rx="14" ry="14"/>
 <rect style="fill:#aa3131" width="28" height="28" x="2" y="2" rx="14" ry="14"/>
 <path style="opacity:0.2" d="M 18.282179,6.2419226 C 17.120945,5.9930373 15.907622,5.934914 14.72236,6.0734638 13.002399,6.2744925 11.337024,6.8884912 9.8915181,7.854266 8.462585,8.8088852 7.289208,10.067403 6.443594,11.550828 c -0.3239914,0.568333 -0.6002552,1.174716 -0.8208493,1.803329 -0.1542008,0.439852 -0.2949897,0.94875 -0.3914653,1.411561 -0.5015439,2.41115 -0.182803,4.897622 0.9118306,7.108216 0.079065,0.159595 0.081435,0.164079 0.088386,0.16022 0.00759,-0.0033 0.043435,-0.05475 0.5527394,-0.773607 1.9181238,-2.707295 4.5087766,-6.399985 7.5472096,-10.75434 0.92599,-1.3269662 1.182657,-1.6940376 1.229125,-1.7635466 0.288189,-0.4312392 0.583004,-0.7481018 0.914736,-0.9825476 0.07959,-0.056121 0.27469,-0.1676895 0.361339,-0.2064913 0.3992,-0.1788503 0.82171,-0.2314767 1.295681,-0.1597069 0.130983,0.019827 0.214755,0.037833 0.363941,0.0778 0.149187,0.039957 0.230774,0.066371 0.354093,0.1145423 0.44637,0.1747571 0.787238,0.4318834 1.043443,0.7863 0.05563,0.076944 0.168919,0.2710964 0.209655,0.3594464 0.17003,0.3688561 0.266804,0.7903995 0.300774,1.3081517 0.01339,0.200929 0.200411,2.343703 0.342343,3.921501 0.220966,2.45626 0.434244,4.728874 0.798062,8.493069 0.183987,1.903064 0.293657,3.04829 0.342679,3.572353 0.01134,0.123238 0.02204,0.227222 0.0235,0.230806 0.0044,0.0087 0.0071,0.0079 0.09435,-0.04825 0.529313,-0.340424 1.059548,-0.753463 1.528736,-1.190942 1.209621,-1.127812 2.140381,-2.514703 2.732971,-4.071888 0.145719,-0.383119 0.242732,-0.685133 0.354571,-1.102406 0.06785,-0.253151 0.09595,-0.386536 0.143966,-0.600828 0.439942,-2.093989 0.258832,-4.257502 -0.524295,-6.256042 C 25.922101,12.173541 25.49579,11.381418 24.990898,10.664864 23.623257,8.7240023 21.685577,7.2889671 19.437327,6.5526704 19.078238,6.4351033 18.655379,6.32166 18.282184,6.2419279 Z m -0.300372,2.9287547 c -0.831838,-0.086437 -1.36474,0.5011181 -1.819552,1.1196027 -2.153357,3.728453 -4.448786,7.766391 -6.7782116,11.922707 -0.6698458,1.195161 -1.3263065,2.371127 -1.3287375,2.380196 -0.00199,0.0074 0.026723,0.03949 0.1410976,0.154647 1.3128006,1.323361 2.9367075,2.286004 4.7308895,2.806032 0.224236,0.06475 0.220024,0.06342 0.43131,0.115536 0.488237,0.119896 0.915309,0.199322 1.382863,0.254897 1.389891,0.165201 2.784595,0.05967 4.139339,-0.313068 0.05372,-0.01477 0.09885,-0.02985 0.100547,-0.03216 0.0012,-0.0044 0.0091,-0.36216 0.02503,-1.524163 0.06214,-4.536641 0.09693,-9.233368 0.10206,-13.73831 -0.07328,-1.357153 -0.0078,-2.7704126 -1.126643,-3.1459285 z"/>
 <path style="fill:#f7b400" d="M 18.282179,5.2419226 C 17.120945,4.9930373 15.907622,4.934914 14.72236,5.0734638 13.002399,5.2744925 11.337024,5.8884912 9.8915181,6.854266 8.462585,7.8088852 7.289208,9.0674029 6.443594,10.550828 c -0.3239914,0.568333 -0.6002552,1.174716 -0.8208493,1.803329 -0.1542008,0.439852 -0.2949897,0.94875 -0.3914653,1.411561 -0.5015439,2.41115 -0.182803,4.897622 0.9118306,7.108216 0.079065,0.159595 0.081435,0.164079 0.088386,0.16022 0.00759,-0.0033 0.043435,-0.05475 0.5527394,-0.773607 1.9181238,-2.707295 4.5087766,-6.399985 7.5472096,-10.7543396 0.92599,-1.3269666 1.182657,-1.694038 1.229125,-1.763547 0.288189,-0.4312392 0.583004,-0.7481018 0.914736,-0.9825476 0.07959,-0.056121 0.27469,-0.1676895 0.361339,-0.2064913 0.3992,-0.1788503 0.82171,-0.2314767 1.295681,-0.1597069 0.130983,0.019827 0.214755,0.037833 0.363941,0.0778 0.149187,0.039957 0.230774,0.066371 0.354093,0.1145423 0.44637,0.1747571 0.787238,0.4318834 1.043443,0.7863 0.05563,0.076944 0.168919,0.2710964 0.209655,0.3594464 0.17003,0.3688561 0.266804,0.7903995 0.300774,1.3081517 0.01339,0.2009288 0.200411,2.343703 0.342343,3.921501 0.220966,2.45626 0.434244,4.728874 0.798062,8.493069 0.183987,1.903064 0.293657,3.04829 0.342679,3.572353 0.01134,0.123238 0.02204,0.227222 0.0235,0.230806 0.0044,0.0087 0.0071,0.0079 0.09435,-0.04825 0.529313,-0.340424 1.059548,-0.753463 1.528736,-1.190942 1.209621,-1.127812 2.140381,-2.514703 2.732971,-4.071888 0.145719,-0.383119 0.242732,-0.685133 0.354571,-1.102406 0.06785,-0.253151 0.09595,-0.386536 0.143966,-0.600828 0.439942,-2.093989 0.258832,-4.257502 -0.524295,-6.256042 C 25.922101,11.173541 25.49579,10.381418 24.990898,9.6648638 23.623257,7.7240023 21.685577,6.2889671 19.437327,5.5526704 19.078238,5.4351033 18.655379,5.32166 18.282184,5.2419279 Z m -0.300372,2.9287547 c -0.831838,-0.086437 -1.36474,0.5011181 -1.819552,1.1196028 -2.153357,3.7284529 -4.448786,7.7663909 -6.7782116,11.9227069 -0.6698458,1.195161 -1.3263065,2.371127 -1.3287375,2.380196 -0.00199,0.0074 0.026723,0.03949 0.1410976,0.154647 1.3128006,1.323361 2.9367075,2.286004 4.7308895,2.806032 0.224236,0.06475 0.220024,0.06342 0.43131,0.115536 0.488237,0.119896 0.915309,0.199322 1.382863,0.254897 1.389891,0.165201 2.784595,0.05967 4.139339,-0.313068 0.05372,-0.01477 0.09885,-0.02985 0.100547,-0.03216 0.0012,-0.0044 0.0091,-0.36216 0.02503,-1.524163 0.06214,-4.536641 0.09693,-9.233368 0.10206,-13.73831 -0.07328,-1.3571534 -0.0078,-2.7704126 -1.126643,-3.1459285 z"/>
 <path style="fill:#ffffff;opacity:0.1" d="M 16 2 C 8.244 2 2 8.244 2 16 C 2 16.168842 2.0195214 16.33264 2.0253906 16.5 C 2.2891326 8.9794325 8.4128418 3 16 3 C 23.587158 3 29.710867 8.9794325 29.974609 16.5 C 29.980479 16.33264 30 16.168842 30 16 C 30 8.244 23.756 2 16 2 z"/>
 <path style="fill:#ffffff;opacity:0.2" d="M 15.615234 5.0058594 C 15.316664 5.016005 15.018972 5.0395813 14.722656 5.0742188 C 13.002695 5.2752475 11.336131 5.8877408 9.890625 6.8535156 C 8.4616919 7.8081348 7.2889734 9.0673561 6.4433594 10.550781 C 6.119368 11.119114 5.843641 11.724903 5.6230469 12.353516 C 5.4688461 12.793368 5.3269444 13.302814 5.2304688 13.765625 C 5.0408963 14.676986 4.9712579 15.599754 5.0136719 16.513672 C 5.0399894 15.9297 5.1097931 15.345768 5.2304688 14.765625 C 5.3269444 14.302814 5.4688461 13.793368 5.6230469 13.353516 C 5.843641 12.724903 6.119368 12.119114 6.4433594 11.550781 C 7.2889734 10.067356 8.4616919 8.8081348 9.890625 7.8535156 C 11.336131 6.8877408 13.002695 6.2752475 14.722656 6.0742188 C 15.907918 5.935669 17.120016 5.9933022 18.28125 6.2421875 C 18.654445 6.3219196 19.078411 6.4351673 19.4375 6.5527344 C 21.68575 7.2890311 23.622593 8.7232008 24.990234 10.664062 C 25.495126 11.380617 25.92122 12.174294 26.240234 12.988281 C 26.685939 14.12572 26.93023 15.316495 26.982422 16.517578 C 27.056679 14.980548 26.809497 13.441038 26.240234 11.988281 C 25.92122 11.174294 25.495126 10.380617 24.990234 9.6640625 C 23.622593 7.723201 21.68575 6.2890311 19.4375 5.5527344 C 19.078411 5.4351673 18.654445 5.3219196 18.28125 5.2421875 C 17.410325 5.0555235 16.510947 4.9754224 15.615234 5.0058594 z M 17.683594 8.1679688 C 17.018108 8.2309803 16.56007 8.7498415 16.162109 9.2910156 C 14.008752 13.019469 11.714191 17.056575 9.3847656 21.212891 C 8.7149198 22.408052 8.0571185 23.584681 8.0546875 23.59375 C 8.0526975 23.60115 8.082891 23.63289 8.1972656 23.748047 C 8.2668339 23.818175 8.3466741 23.87527 8.4179688 23.943359 C 8.6446991 23.53565 8.8978973 23.081577 9.3847656 22.212891 C 11.714191 18.056575 14.008752 14.019469 16.162109 10.291016 C 16.616921 9.672531 17.150584 9.0834849 17.982422 9.1699219 C 19.065096 9.5332984 19.039948 10.869863 19.103516 12.185547 C 19.104077 11.899101 19.10905 11.601406 19.109375 11.316406 C 19.036095 9.9592529 19.101265 8.5454378 17.982422 8.1699219 C 17.878442 8.1591172 17.778663 8.1589671 17.683594 8.1679688 z"/>
</svg>

<svg xmlns="http://www.w3.org/2000/svg" width="32" height="32" version="1">
 <circle style="opacity:0.2" cx="-16" cy="17" r="14" transform="scale(-1,1)"/>
 <circle style="fill:#aa3131" cx="-16" cy="16" r="14" transform="scale(-1,1)"/>
 <path style="opacity:0.2" d="M 18.282,6.2422 C 17.121,5.9933 15.908,5.9352 14.722,6.0738 13.002,6.2748 11.337,6.8888 9.892,7.8546 8.463,8.8092 7.289,10.068 6.444,11.551 6.12,12.119 5.843,12.726 5.623,13.354 5.469,13.794 5.328,14.303 5.231,14.766 4.73,17.177 5.048,19.663 6.143,21.874 L 6.231,22.034 15.561,8.743 C 15.849,8.3117 16.144,7.9949 16.475,7.7604 16.555,7.7043 16.75,7.5927 16.837,7.5539 17.236,7.3751 17.658,7.3224 18.132,7.3942 18.346,7.4265 18.619,7.4961 18.85,7.5866 19.297,7.7613 19.638,8.0184 19.894,8.3729 19.949,8.4498 20.063,8.644 20.103,8.7323 20.273,9.1012 20.37,9.5227 20.404,10.041 L 21.911,26.258 22.005,26.21 C 22.535,25.869 23.065,25.456 23.534,25.019 24.743,23.891 25.674,22.504 26.267,20.947 26.487,20.367 26.662,19.703 26.765,19.244 27.205,17.15 27.024,14.986 26.241,12.988 25.922,12.174 25.496,11.381 24.991,10.665 23.623,8.7243 21.686,7.2893 19.437,6.553 19.078,6.4354 18.655,6.322 18.282,6.2422 Z M 17.982,9.171 C 17.15,9.0845 16.617,9.6721 16.162,10.291 L 8.055,24.593 8.196,24.748 C 9.509,26.071 11.133,27.034 12.927,27.554 13.395,27.689 14.057,27.843 14.741,27.924 16.131,28.089 17.526,27.984 18.881,27.611 L 18.981,27.579 19.108,12.317 C 19.035,10.96 19.101,9.5465 17.982,9.171 Z"/>
 <path style="fill:#f7b400" d="M 18.282,5.2419 C 17.121,4.993 15.908,4.9349 14.722,5.0735 13.002,5.2745 11.337,5.8885 9.892,6.8543 8.463,7.8089 7.289,9.0674 6.444,10.551 6.12,11.119 5.843,11.726 5.623,12.354 5.469,12.794 5.328,13.303 5.231,13.766 4.73,16.177 5.048,18.663 6.143,20.874 L 6.231,21.034 15.561,7.7427 C 15.849,7.3114 16.144,6.9946 16.475,6.7601 16.555,6.704 16.75,6.5924 16.837,6.5536 17.236,6.3748 17.658,6.3221 18.132,6.3939 18.346,6.4262 18.619,6.4958 18.85,6.5863 19.297,6.761 19.638,7.0181 19.894,7.3726 19.949,7.4495 20.063,7.6437 20.103,7.732 20.273,8.1009 20.37,8.5224 20.404,9.0402 L 21.911,25.258 22.005,25.21 C 22.535,24.869 23.065,24.456 23.534,24.019 24.743,22.891 25.674,21.504 26.267,19.947 26.487,19.367 26.662,18.703 26.765,18.244 27.205,16.15 27.024,13.986 26.241,11.988 25.922,11.174 25.496,10.381 24.991,9.6649 23.623,7.724 21.686,6.289 19.437,5.5527 19.078,5.4351 18.655,5.3217 18.282,5.2419 Z M 17.982,8.1707 C 17.15,8.0842 16.617,8.6718 16.162,9.2903 L 8.055,23.593 8.196,23.748 C 9.509,25.071 11.133,26.034 12.927,26.554 13.395,26.689 14.057,26.843 14.741,26.924 16.131,27.089 17.526,26.984 18.881,26.611 L 18.981,26.579 19.108,11.317 C 19.035,9.9594 19.101,8.5462 17.982,8.1707 Z"/>
 <path style="opacity:0.1;fill:#ffffff" d="M 16,2 A 14,14 0 0 1 30,16 14,14 0 0 1 29.978,16.586 14,14 0 0 0 16,3 14,14 0 0 0 2.021,16.414 14,14 0 0 1 2,16 14,14 0 0 1 16,2 Z"/>
 <path style="opacity:0.2;fill:#ffffff" d="M 15.615,5.0059 C 16.511,4.9754 17.411,5.0555 18.281,5.2422 18.654,5.322 19.079,5.4351 19.438,5.5527 21.687,6.289 23.623,7.7232 24.99,9.6641 25.495,10.38 25.921,11.174 26.24,11.988 26.809,13.441 27.057,14.98 26.982,16.518 26.93,15.316 26.686,14.125 26.24,12.988 25.921,12.174 25.495,11.38 24.99,10.664 23.623,8.7234 21.687,7.289 19.438,6.5527 19.079,6.4351 18.654,6.322 18.281,6.2422 17.12,5.9933 15.909,5.9356 14.723,6.0742 13.003,6.2752 11.338,6.8897 9.893,7.8555 8.464,8.8101 7.288,10.068 6.443,11.551 6.119,12.119 5.843,12.726 5.623,13.354 5.469,13.794 5.327,14.303 5.23,14.766 5.109,15.349 5.038,15.936 5.012,16.523 4.968,15.606 5.04,14.68 5.23,13.766 5.327,13.303 5.469,12.794 5.623,12.354 5.843,11.726 6.119,11.119 6.443,10.551 7.288,9.0672 8.464,7.8081 9.893,6.8535 11.338,5.8877 13.003,5.2752 14.723,5.0742 15.019,5.0396 15.317,5.016 15.615,5.0059 Z M 17.684,8.168 C 17.779,8.159 17.878,8.1591 17.982,8.1699 19.101,8.5454 19.034,9.9588 19.107,11.316 L 19.1,12.17 C 19.037,10.86 19.061,9.5338 17.982,9.1719 17.15,9.0854 16.617,9.6721 16.162,10.291 L 8.42,23.947 C 8.347,23.878 8.266,23.819 8.195,23.748 L 8.055,23.594 16.162,9.291 C 16.56,8.7498 17.018,8.2309 17.684,8.168 Z"/>
</svg>
